dist/img/icons/registration/lock.svg

<svg width="27" height="27" viewBox="0 0 27 27" fill="none" xmlns="http://www.w3.org/2000/svg">
<g clip-path="url(#clip0)">
<path d="M21.0179 11.2359H8.01792V7.33594C8.01792 4.4638 10.3458 2.13594 13.2179 2.13594C16.0901 2.13594 18.4179 4.4638 18.4179 7.33594H19.7179C19.7179 3.75185 16.802 0.835938 13.2179 0.835938C9.63383 0.835938 6.71792 3.75185 6.71792 7.33594V11.2359H5.41792C4.69987 11.2359 4.11792 11.8179 4.11792 12.5359V25.5359C4.11792 26.254 4.69987 26.8359 5.41792 26.8359H21.0179C21.736 26.8359 22.3179 26.254 22.3179 25.5359V12.5359C22.3179 11.8179 21.736 11.2359 21.0179 11.2359ZM21.0179 25.5359H5.41792V12.5359H21.0179V25.5359Z" fill="white"/>
<path d="M13.2177 16.4358C12.1426 16.4358 11.2677 17.3107 11.2677 18.3858C11.2677 19.2321 11.8128 19.9467 12.5677 20.2162V22.2858H13.8677V20.2162C14.6226 19.9471 15.1677 19.2321 15.1677 18.3858C15.1677 17.3107 14.2928 16.4358 13.2177 16.4358ZM13.2177 19.0358C12.8589 19.0358 12.5677 18.7446 12.5677 18.3858C12.5677 18.027 12.8589 17.7358 13.2177 17.7358C13.5765 17.7358 13.8677 18.027 13.8677 18.3858C13.8677 18.7446 13.5765 19.0358 13.2177 19.0358Z" fill="white"/>
</g>
<defs>
<clipPath id="clip0">
<rect width="26" height="26" fill="white" transform="translate(0.217773 0.835938)"/>
</clipPath>
</defs>
</svg>

<svg width="27" height="27" fill="none" xmlns="http://www.w3.org/2000/svg"><g clip-path="url(#clip0)" fill="#fff"><path d="M21.018 11.236h-13v-3.9a5.2 5.2 0 1110.4 0h1.3c0-3.584-2.916-6.5-6.5-6.5a6.507 6.507 0 00-6.5 6.5v3.9h-1.3a1.3 1.3 0 00-1.3 1.3v13a1.3 1.3 0 001.3 1.3h15.6a1.3 1.3 0 001.3-1.3v-13a1.3 1.3 0 00-1.3-1.3zm0 14.3h-15.6v-13h15.6v13z"/><path d="M13.218 16.436c-1.075 0-1.95.875-1.95 1.95 0 .846.545 1.56 1.3 1.83v2.07h1.3v-2.07a1.947 1.947 0 001.3-1.83c0-1.075-.875-1.95-1.95-1.95zm0 2.6a.65.65 0 110-1.3.65.65 0 010 1.3z"/></g><defs><clipPath id="clip0"><path fill="#fff" transform="translate(.218 .836)" d="M0 0h26v26H0z"/></clipPath></defs></svg>
